;START_OF_HEADER
;HEADER_VERSION:0.1
;FLAVOR:Griffin
;GENERATOR.NAME:Cura_SteamEngine
;GENERATOR.VERSION:4.6.2
;GENERATOR.BUILD_DATE:2020-07-13
;TARGET_MACHINE.NAME:Ultimaker 3 Extended
;EXTRUDER_TRAIN.0.INITIAL_TEMPERATURE:205
;EXTRUDER_TRAIN.0.MATERIAL.VOLUME_USED:12591
;EXTRUDER_TRAIN.0.MATERIAL.GUID:506c9f0d-e3aa-4bd4-b2d2-23e2425b1aa9
;EXTRUDER_TRAIN.0.NOZZLE.DIAMETER:0.4
;EXTRUDER_TRAIN.0.NOZZLE.NAME:AA 0.4
;BUILD_PLATE.TYPE:glass
;BUILD_PLATE.INITIAL_TEMPERATURE:60
;PRINT.TIME:7146
;PRINT.GROUPS:1
;PRINT.SIZE.MIN.X:9
;PRINT.SIZE.MIN.Y:6
;PRINT.SIZE.MIN.Z:0.27
;PRINT.SIZE.MAX.X:208.43
;PRINT.SIZE.MAX.Y:121.43
;PRINT.SIZE.MAX.Z:25.47
;END_OF_HEADER
;Generated with Cura_SteamEngine 4.6.2
T0
M82 ;absolute extrusion mode

G92 E0
M109 S205
G0 F15000 X9 Y6 Z2
G280
G1 F1500 E-6.5
;LAYER_COUNT:172
;LAYER:0
M107
M204 S625
M205 X6 Y6
G1 F600 Z2.27
G0 F3857.1 X29.921 Y93.782 Z2.27
M204 S500
M205 X5 Y5
;TYPE:SKIRT
G1 F600 Z0.27
G1 F1500 E0
G1 F1080 X30.651 Y93.638 E0.01323
G1 X31.623 Y93.57 E0.03055
G1 X201.377 Y93.57 E3.04809
G1 X202.12 Y93.61 E3.06132
G1 X202.855 Y93.729 E3.07455
G1 X203.573 Y93.927 E3.08779
G1 X204.265 Y94.2 E3.10102
G1 X204.924 Y94.546 E3.11425
G1 X205.542 Y94.961 E3.12748
G1 X206.112 Y95.44 E3.14071
G1 X206.627 Y95.977 E3.15394
G1 X207.082 Y96.566 E3.16717
G1 X207.471 Y97.2 E3.18039
G1 X207.79 Y97.873 E3.19363
G1 X208.035 Y98.576 E3.20687
G1 X208.203 Y99.301 E3.22009
G1 X208.292 Y100.04 E3.23333
G1 X208.43 Y114.316 E3.48711
G1 X208.396 Y115.059 E3.50033
G1 X208.283 Y115.795 E3.51356
G1 X208.092 Y116.514 E3.52679
G1 X207.825 Y117.209 E3.54002
G1 X207.485 Y117.871 E3.55325
G1 X207.076 Y118.493 E3.56649
G1 X206.4 Y119.277 E3.58489
G1 X205.723 Y119.898 E3.60122
G1 X205.119 Y120.333 E3.61445
G1 X204.472 Y120.7 E3.62767
G1 X203.79 Y120.997 E3.64089
G1 X203.079 Y121.218 E3.65413
G1 X202.349 Y121.362 E3.66736
G1 X201.377 Y121.43 E3.68468
G1 X31.623 Y121.43 E6.70222
G1 X30.88 Y121.39 E6.71545
G1 X30.145 Y121.271 E6.72868
G1 X29.427 Y121.073 E6.74192
G1 X28.735 Y120.8 E6.75514
G1 X28.076 Y120.454 E6.76838
G1 X27.458 Y120.039 E6.78161
G1 X26.723 Y119.4 E6.79892
G1 X26.102 Y118.723 E6.81525
G1 X25.667 Y118.119 E6.82848
G1 X25.3 Y117.472 E6.84171
G1 X25.003 Y116.79 E6.85493
G1 X24.782 Y116.079 E6.86816
G1 X24.638 Y115.349 E6.88139
G1 X24.57 Y114.377 E6.89871
G1 X24.57 Y100.623 E7.1432
G1 X24.61 Y99.88 E7.15643
G1 X24.729 Y99.145 E7.16966
G1 X24.927 Y98.427 E7.1829
G1 X25.2 Y97.735 E7.19613
G1 X25.546 Y97.076 E7.20936
G1 X25.961 Y96.458 E7.22259
G1 X26.6 Y95.723 E7.2399
G1 X27.277 Y95.102 E7.25623
G1 X27.881 Y94.667 E7.26946
G1 X28.528 Y94.3 E7.28269
G1 X29.21 Y94.003 E7.29591
G1 X29.921 Y93.782 E7.30914
M204 S625
M205 X6 Y6
G0 F3857.1 X30.132 Y94.163
M204 S500
M205 X5 Y5
G1 F1080 X30.842 Y94.037 E7.32196
G1 X31.623 Y93.99 E7.33587
G1 X201.377 Y93.99 E10.35341
G1 X202.097 Y94.03 E10.36623
G1 X202.809 Y94.149 E10.37906
G1 X203.503 Y94.347 E10.39189
G1 X204.17 Y94.62 E10.4047
G1 X204.804 Y94.965 E10.41754
G1 X205.395 Y95.378 E10.43035
G1 X205.937 Y95.854 E10.44317
G1 X206.423 Y96.387 E10.456
G1 X206.847 Y96.971 E10.46883
G1 X207.204 Y97.598 E10.48165
G1 X207.49 Y98.26 E10.49447
G1 X207.7 Y98.95 E10.50729
G1 X207.832 Y99.659 E10.52011
G1 X207.887 Y100.442 E10.53406
G1 X208.01 Y114.319 E10.78075
G1 X207.976 Y115.04 E10.79358
G1 X207.863 Y115.752 E10.8064
G1 X207.672 Y116.448 E10.81923
G1 X207.405 Y117.118 E10.83205
G1 X207.065 Y117.755 E10.84488
G1 X206.657 Y118.35 E10.85771
G1 X206.103 Y118.98 E10.87262
G1 X205.443 Y119.584 E10.88852
G1 X204.855 Y120.003 E10.90136
G1 X204.225 Y120.354 E10.91418
G1 X203.56 Y120.633 E10.927
G1 X202.868 Y120.837 E10.93982
G1 X202.158 Y120.963 E10.95264
G1 X201.377 Y121.01 E10.96655
G1 X31.623 Y121.01 E13.98409
G1 X30.903 Y120.97 E13.99691
G1 X30.191 Y120.851 E14.00974
G1 X29.497 Y120.653 E14.02257
G1 X28.83 Y120.38 E14.03538
G1 X28.196 Y120.035 E14.04821
G1 X27.605 Y119.622 E14.06103
G1 X27.02 Y119.103 E14.07493
G1 X26.416 Y118.443 E14.09083
G1 X25.997 Y117.855 E14.10367
G1 X25.646 Y117.225 E14.11649
G1 X25.367 Y116.56 E14.12931
G1 X25.163 Y115.868 E14.14213
G1 X25.037 Y115.158 E14.15495
G1 X24.99 Y114.377 E14.16886
G1 X24.99 Y100.623 E14.41335
G1 X25.03 Y99.903 E14.42617
G1 X25.149 Y99.191 E14.439
G1 X25.347 Y98.497 E14.45183
G1 X25.62 Y97.83 E14.46464
G1 X25.965 Y97.196 E14.47747
G1 X26.378 Y96.605 E14.49028
G1 X26.897 Y96.02 E14.50419
G1 X27.557 Y95.416 E14.52009
G1 X28.145 Y94.997 E14.53292
G1 X28.775 Y94.646 E14.54574
G1 X29.44 Y94.367 E14.55856
G1 X30.132 Y94.163 E14.57139
M204 S625
M205 X6 Y6
G0 F3857.1 X30.34 Y94.547
M204 S500
M205 X5 Y5
G1 F1080 X31.029 Y94.439 E14.58378
G1 X31.623 Y94.41 E14.59436
G1 X201.377 Y94.41 E17.6119
G1 X202.074 Y94.45 E17.62431
G1 X202.761 Y94.569 E17.6367
G1 X203.43 Y94.767 E17.64911
G1 X204.073 Y95.039 E17.66152
G1 X204.679 Y95.383 E17.6739
G1 X205.243 Y95.795 E17.68632
G1 X205.756 Y96.268 E17.69872
G1 X206.211 Y96.796 E17.71111
G1 X206.603 Y97.373 E17.72351
G1 X206.926 Y97.992 E17.73592
G1 X207.177 Y98.643 E17.74833
G1 X207.351 Y99.319 E17.76073
G1 X207.447 Y100.01 E17.77313
G1 X207.59 Y114.323 E18.02757
G1 X207.556 Y115.02 E18.03998
G1 X207.443 Y115.708 E18.05237
G1 X207.251 Y116.379 E18.06478
G1 X206.985 Y117.024 E18.07718
G1 X206.646 Y117.634 E18.08959
G1 X206.24 Y118.201 E18.10198
G1 X205.806 Y118.683 E18.11351
G1 X205.162 Y119.271 E18.12901
G1 X204.592 Y119.672 E18.1414
G1 X203.979 Y120.006 E18.15381
G1 X203.332 Y120.268 E18.16622
G1 X202.66 Y120.453 E18.17861
G1 X201.971 Y120.561 E18.19101
G1 X201.377 Y120.59 E18.20158
G1 X31.623 Y120.59 E21.21912
G1 X30.926 Y120.55 E21.23153
G1 X30.239 Y120.431 E21.24393
G1 X29.57 Y120.233 E21.25633
G1 X28.927 Y119.961 E21.26874
G1 X28.321 Y119.617 E21.28113
G1 X27.757 Y119.205 E21.29354
G1 X27.317 Y118.806 E21.3041
G1 X26.729 Y118.162 E21.3196
G1 X26.328 Y117.592 E21.33199
G1 X25.994 Y116.979 E21.3444
G1 X25.732 Y116.332 E21.35681
G1 X25.547 Y115.66 E21.3692
G1 X25.439 Y114.971 E21.38159
G1 X25.41 Y114.377 E21.39217
G1 X25.41 Y100.623 E21.63666
G1 X25.45 Y99.926 E21.64907
G1 X25.569 Y99.239 E21.66146
G1 X25.767 Y98.57 E21.67386
G1 X26.039 Y97.927 E21.68627
G1 X26.383 Y97.321 E21.69866
G1 X26.795 Y96.757 E21.71108
G1 X27.194 Y96.317 E21.72163
G1 X27.838 Y95.729 E21.73714
G1 X28.408 Y95.328 E21.74952
G1 X29.021 Y94.994 E21.76193
G1 X29.668 Y94.732 E21.77434
G1 X30.34 Y94.547 E21.78673
M204 S625
M205 X6 Y6
G0 F3857.1 X30.544 Y94.934
M204 S500
M205 X5 Y5
G1 F1080 X31.212 Y94.845 E21.79871
G1 X201.377 Y94.83 E24.82356
G1 X202.049 Y94.87 E24.83553
G1 X202.712 Y94.989 E24.8475
G1 X203.355 Y95.186 E24.85945
G1 X203.971 Y95.458 E24.87142
G1 X204.55 Y95.801 E24.88339
G1 X205.085 Y96.21 E24.89536
G1 X205.567 Y96.68 E24.90733
G1 X205.99 Y97.204 E24.9193
G1 X206.349 Y97.774 E24.93127
G1 X206.637 Y98.382 E24.94323
G1 X206.851 Y99.02 E24.95519
G1 X206.987 Y99.68 E24.96717
G1 X207.047 Y100.45 E24.9809
G1 X207.17 Y114.327 E25.22759
G1 X207.136 Y114.999 E25.23955
G1 X207.022 Y115.663 E25.25152
G1 X206.831 Y116.308 E25.26348
G1 X206.565 Y116.926 E25.27544
G1 X206.227 Y117.509 E25.28742
G1 X205.822 Y118.047 E25.29939
G1 X205.386 Y118.509 E25.31068
G1 X204.883 Y118.956 E25.32264
G1 X204.33 Y119.34 E25.33461
G1 X203.735 Y119.656 E25.34659
G1 X203.108 Y119.899 E25.35854
G1 X202.456 Y120.066 E25.37051
G1 X201.788 Y120.155 E25.38248
G1 X31.623 Y120.17 E28.40733
G1 X30.951 Y120.13 E28.4193
G1 X30.288 Y120.011 E28.43127
G1 X29.645 Y119.814 E28.44323
G1 X29.029 Y119.542 E28.4552
G1 X28.45 Y119.199 E28.46716
G1 X27.915 Y118.79 E28.47913
G1 X27.491 Y118.386 E28.48954
G1 X27.044 Y117.883 E28.5015
G1 X26.66 Y117.33 E28.51347
G1 X26.344 Y116.735 E28.52545
G1 X26.101 Y116.108 E28.5374
G1 X25.934 Y115.456 E28.54936
G1 X25.845 Y114.788 E28.56134
G1 X25.83 Y100.623 E28.81314
G1 X25.87 Y99.951 E28.82511
G1 X25.989 Y99.288 E28.83708
G1 X26.186 Y98.645 E28.84904
G1 X26.458 Y98.029 E28.86101
G1 X26.801 Y97.45 E28.87297
G1 X27.21 Y96.915 E28.88494
G1 X27.614 Y96.491 E28.89535
G1 X28.117 Y96.044 E28.90731
G1 X28.67 Y95.66 E28.91928
G1 X29.265 Y95.344 E28.93126
G1 X29.892 Y95.101 E28.94321
G1 X30.544 Y94.934 E28.95517
M204 S625
M205 X6 Y6
G0 F3857.1 X30.114 Y95.472
M204 S500
M205 X5 Y5
G1 F1080 X30.745 Y95.324 E28.96669
G1 X31.623 Y95.25 E28.98236
G1 X201.377 Y95.25 E31.9999
G1 X202.024 Y95.29 E32.01142
G1 X202.66 Y95.409 E32.02292
G1 X203.277 Y95.606 E32.03444
G1 X203.866 Y95.877 E32.04596
G1 X204.416 Y96.219 E32.05748
G1 X204.92 Y96.626 E32.06899
G1 X205.37 Y97.092 E32.08051
G1 X205.759 Y97.609 E32.09201
G1 X206.082 Y98.171 E32.10353
G1 X206.333 Y98.768 E32.11504
G1 X206.509 Y99.392 E32.12657
G1 X206.606 Y100.032 E32.13807
G1 X206.75 Y114.33 E32.39225
G1 X206.716 Y114.977 E32.40376
G1 X206.602 Y115.615 E32.41528
G1 X206.411 Y116.234 E32.4268
G1 X206.145 Y116.825 E32.43832
G1 X205.808 Y117.378 E32.44983
G1 X205.212 Y118.089 E32.46632
G1 X204.604 Y118.641 E32.48092
G1 X204.069 Y119.007 E32.49244
G1 X203.494 Y119.304 E32.50395
G1 X202.886 Y119.528 E32.51547
G1 X202.255 Y119.676 E32.52699
G1 X201.377 Y119.75 E32.54265
G1 X31.623 Y119.75 E35.56019
G1 X30.976 Y119.71 E35.57172
G1 X30.34 Y119.591 E35.58322
G1 X29.723 Y119.394 E35.59473
G1 X29.134 Y119.123 E35.60626
G1 X28.584 Y118.781 E35.61777
G1 X27.911 Y118.212 E35.63343
G1 X27.359 Y117.604 E35.64803
G1 X26.993 Y117.069 E35.65956
G1 X26.696 Y116.494 E35.67106
G1 X26.472 Y115.886 E35.68258
G1 X26.324 Y115.255 E35.6941
G1 X26.25 Y114.377 E35.70976
G1 X26.25 Y100.623 E35.95425
G1 X26.29 Y99.976 E35.96577
G1 X26.409 Y99.34 E35.97728
G1 X26.606 Y98.723 E35.98879
G1 X26.877 Y98.134 E36.00031
G1 X27.219 Y97.584 E36.01183
G1 X27.788 Y96.911 E36.02749
G1 X28.396 Y96.359 E36.04209
G1 X28.931 Y95.993 E36.05361
G1 X29.506 Y95.696 E36.06512
G1 X30.114 Y95.472 E36.07664
M204 S625
M205 X6 Y6
G0 F3857.1 X30.332 Y95.846
M204 S500
M205 X5 Y5
G1 F1080 X30.94 Y95.718 E36.08768
G1 X31.623 Y95.67 E36.09985
G1 X201.377 Y95.67 E39.11739
G1 X201.997 Y95.71 E39.12844
G1 X202.607 Y95.829 E39.13949
G1 X203.196 Y96.026 E39.15053
G1 X203.755 Y96.296 E39.16156
G1 X204.275 Y96.636 E39.17261
G1 X204.747 Y97.04 E39.18365
G1 X205.164 Y97.502 E39.19471
G1 X205.517 Y98.012 E39.20574
G1 X205.802 Y98.564 E39.21678
G1 X206.014 Y99.149 E39.22784
G1 X206.149 Y99.755 E39.23888
G1 X206.207 Y100.457 E39.2514
G1 X206.33 Y114.334 E39.49809
G1 X206.295 Y114.955 E39.50914
G1 X206.182 Y115.565 E39.52017
G1 X205.99 Y116.156 E39.53122
G1 X205.725 Y116.718 E39.54226
G1 X205.389 Y117.241 E39.55331
G1 X204.915 Y117.792 E39.56623
G1 X204.326 Y118.325 E39.58035
G1 X203.81 Y118.672 E39.59141
G1 X203.254 Y118.95 E39.60246
G1 X202.668 Y119.154 E39.61349
G1 X202.06 Y119.282 E39.62453
G1 X201.377 Y119.33 E39.6367
G1 X31.623 Y119.33 E42.65424
G1 X31.003 Y119.29 E42.66529
G1 X30.393 Y119.171 E42.67634
G1 X29.804 Y118.974 E42.68738
G1 X29.245 Y118.704 E42.69841
G1 X28.725 Y118.364 E42.70946
G1 X28.208 Y117.915 E42.72163
G1 X27.675 Y117.326 E42.73575
G1 X27.328 Y116.81 E42.7468
G1 X27.05 Y116.254 E42.75785
G1 X26.846 Y115.668 E42.76888
G1 X26.718 Y115.06 E42.77993
G1 X26.67 Y114.377 E42.7921
G1 X26.67 Y100.623 E43.03659
G1 X26.71 Y100.003 E43.04763
G1 X26.829 Y99.393 E43.05868
G1 X27.026 Y98.804 E43.06972
G1 X27.296 Y98.245 E43.08076
G1 X27.636 Y97.725 E43.0918
G1 X28.085 Y97.208 E43.10397
G1 X28.674 Y96.675 E43.11809
G1 X29.19 Y96.328 E43.12915
G1 X29.746 Y96.05 E43.1402
G1 X30.332 Y95.846 E43.15123
M204 S625
M205 X6 Y6
G0 F3857.1 X30.547 Y96.223
M204 S500
M205 X5 Y5
G1 F1080 X31.131 Y96.118 E43.16177
G1 X31.623 Y96.09 E43.17053
G1 X201.377 Y96.09 E46.18808
G1 X201.969 Y96.13 E46.19862
G1 X202.551 Y96.249 E46.20918
G1 X203.111 Y96.445 E46.21973
G1 X203.64 Y96.715 E46.23029
G1 X204.128 Y97.053 E46.24084
G1 X204.566 Y97.454 E46.2514
G1 X204.946 Y97.91 E46.26195
G1 X205.262 Y98.413 E46.27251
G1 X205.507 Y98.953 E46.28305
G1 X205.677 Y99.522 E46.2936
G1 X205.77 Y100.108 E46.30415
G1 X205.91 Y114.338 E46.55712
G1 X205.875 Y114.931 E46.56767
G1 X205.761 Y115.513 E46.57822
G1 X205.57 Y116.075 E46.58877
G1 X205.305 Y116.606 E46.59932
G1 X204.971 Y117.097 E46.60987
G1 X204.618 Y117.495 E46.61933
G1 X204.048 Y118.009 E46.63297
G1 X203.553 Y118.336 E46.64352
G1 X203.018 Y118.593 E46.65407
G1 X202.453 Y118.777 E46.66463
G1 X201.869 Y118.882 E46.67518
G1 X201.377 Y118.91 E46.68394
G1 X31.623 Y118.91 E49.70148
G1 X31.031 Y118.87 E49.71203
G1 X30.449 Y118.751 E49.72259
G1 X29.889 Y118.555 E49.73314
G1 X29.36 Y118.285 E49.74369
G1 X28.872 Y117.947 E49.75425
G1 X28.382 Y117.495 E49.7661
G1 X27.991 Y117.048 E49.77665
G1 X27.664 Y116.553 E49.7872
G1 X27.407 Y116.018 E49.79775
G1 X27.223 Y115.453 E49.80831
G1 X27.118 Y114.869 E49.81886
G1 X27.09 Y114.377 E49.82762
G1 X27.09 Y100.623 E50.07211
G1 X27.13 Y100.031 E50.08266
G1 X27.249 Y99.449 E50.09322
G1 X27.445 Y98.889 E50.10376
G1 X27.715 Y98.36 E50.11432
G1 X28.053 Y97.872 E50.12487
G1 X28.505 Y97.382 E50.13672
G1 X28.952 Y96.991 E50.14728
G1 X29.447 Y96.664 E50.15783
G1 X29.982 Y96.407 E50.16838
G1 X30.547 Y96.223 E50.17894
M204 S625
M205 X6 Y6
G0 F3857.1 X30.757 Y96.605
M204 S500
M205 X5 Y5
G1 F1080 X31.315 Y96.522 E50.18897
G1 X201.377 Y96.51 E53.21199
G1 X201.94 Y96.55 E53.22202
G1 X202.492 Y96.669 E53.23206
G1 X203.022 Y96.865 E53.2421
G1 X203.518 Y97.133 E53.25212
G1 X203.972 Y97.469 E53.26216
G1 X204.374 Y97.866 E53.27221
G1 X204.716 Y98.315 E53.28224
G1 X204.991 Y98.809 E53.29229
G1 X205.193 Y99.336 E53.30232
G1 X205.319 Y99.886 E53.31235
G1 X205.367 Y100.465 E53.32268
G1 X205.49 Y114.342 E53.56937
G1 X205.455 Y114.905 E53.57939
G1 X205.341 Y115.458 E53.58943
G1 X205.15 Y115.989 E53.59946
G1 X204.886 Y116.488 E53.6095
G1 X204.554 Y116.945 E53.61954
G1 X204.198 Y117.321 E53.62874
G1 X203.772 Y117.691 E53.63877
G1 X203.297 Y117.997 E53.64882
G1 X202.784 Y118.234 E53.65886
G1 X202.243 Y118.395 E53.66889
G1 X201.685 Y118.478 E53.67892
G1 X31.623 Y118.49 E56.70194
G1 X31.06 Y118.45 E56.71197
G1 X30.508 Y118.331 E56.72201
G1 X29.978 Y118.135 E56.73206
G1 X29.482 Y117.867 E56.74208
G1 X29.028 Y117.531 E56.75212
G1 X28.679 Y117.198 E56.76069
G1 X28.309 Y116.772 E56.77072
G1 X28.003 Y116.297 E56.78077
G1 X27.766 Y115.784 E56.79081
G1 X27.605 Y115.243 E56.80085
G1 X27.522 Y114.685 E56.81087
G1 X27.51 Y100.623 E57.06084
G1 X27.55 Y100.06 E57.07087
G1 X27.669 Y99.508 E57.08091
G1 X27.865 Y98.978 E57.09096
G1 X28.133 Y98.482 E57.10098
G1 X28.469 Y98.028 E57.11102
G1 X28.802 Y97.679 E57.11959
G1 X29.228 Y97.309 E57.12962
G1 X29.703 Y97.003 E57.13967
G1 X30.216 Y96.766 E57.14971
G1 X30.757 Y96.605 E57.15975
M204 S625
M205 X6 Y6
G0 F3857.1 X30.961 Y96.992
M204 S500
M205 X5 Y5
G1 F1080 X31.623 Y96.93 E57.17156
G1 X201.377 Y96.93 E60.18911
G1 X201.91 Y96.97 E60.19861
G1 X202.43 Y97.089 E60.20809
G1 X202.927 Y97.284 E60.21758
G1 X203.39 Y97.551 E60.22708
G1 X203.807 Y97.885 E60.23658
G1 X204.17 Y98.276 E60.24606
G1 X204.47 Y98.718 E60.25556
G1 X204.702 Y99.199 E60.26505
G1 X204.858 Y99.71 E60.27455
G1 X204.947 Y100.468 E60.28812
G1 X205.07 Y114.345 E60.5348
G1 X205.035 Y114.878 E60.5443
G1 X204.92 Y115.4 E60.5538
G1 X204.729 Y115.899 E60.5633
G1 X204.466 Y116.363 E60.57278
G1 X204.024 Y116.901 E60.58516
G1 X203.497 Y117.373 E60.59773
G1 X203.044 Y117.657 E60.60724
G1 X202.555 Y117.87 E60.61672
G1 X202.039 Y118.008 E60.62621
G1 X201.377 Y118.07 E60.63803
G1 X31.623 Y118.07 E63.65557
G1 X31.09 Y118.03 E63.66507
G1 X30.57 Y117.911 E63.67456
G1 X30.073 Y117.716 E63.68405
G1 X29.61 Y117.449 E63.69355
G1 X29.099 Y117.024 E63.70536
G1 X28.627 Y116.497 E63.71794
G1 X28.343 Y116.044 E63.72744
G1 X28.13 Y115.555 E63.73692
G1 X27.992 Y115.039 E63.74642
G1 X27.93 Y114.377 E63.75824
G1 X27.93 Y100.623 E64.00273
G1 X27.97 Y100.09 E64.01223
G1 X28.089 Y99.57 E64.02171
G1 X28.284 Y99.073 E64.0312
G1 X28.551 Y98.61 E64.0407
G1 X28.976 Y98.099 E64.05252
G1 X29.503 Y97.627 E64.06509
G1 X29.956 Y97.343 E64.0746
G1 X30.445 Y97.13 E64.08408
G1 X30.961 Y96.992 E64.09357
M204 S625
M205 X6 Y6
G0 F3857.1 X30.671 Y97.497
M204 S500
M205 X5 Y5
G1 F1080 X31.159 Y97.384 E64.10248
G1 X31.623 Y97.35 E64.11075
G1 X201.377 Y97.35 E67.12829
G1 X201.877 Y97.39 E67.13721
G1 X202.364 Y97.509 E67.14612
G1 X202.827 Y97.703 E67.15504
